X: 15
T:Mrs McLeod of Raasay
M:4/4
L:1/8
R:Reel
Z:Tim Barker, '9
K:A
c/2B/2|A2 a2 fefa|c2 c-B c2 c-B|A2 a2 fefa|B2 B-A BdcB|!
A2 a2 fefa|c2 c-B c2 c-e|f2 f-g f-ef-g|afec B2 c-B|!
A-Bcd e-cBA|c2 c-B c2 c-B|A-Bcd e-cBAB2 B-A BdcB|!
A-Bcd e-cBA|c2 c-B c2 c-e|f2 fg fef-g|a-fec B-dcB||
% <A name="D1X016">
